X: 1378
T: An Seanchai Muimhneach
R: jig
M: 6/8
K: Edorian
|:A|B2 B EFA B2 A Bcd|B2 B EFG A2 G FED|
B^AB EF=A B3 Bcd|A^GA DFG A2 G F2:|
|:f|g2 e fed e2 d BAF|B2 B EFG A2 G F2 f|
g2 e fed edc d2 B|A^GA DFG A2 G F2:|
|:D|E2 E EFD EF/E/D EFA|E^DE EFG A2 G FED|
E2 E EFD E2 D EE/F/G|A^GA D2 F A2 G F2:|

